X: 0021
T: G\aangl\aat efter G\aards Jonas
O: efter Olmarts (Spak) Erik
%R: ganglat, march
B: Paul B\"ackstr\"om's "L\aatar fr\aan Dalarna" collection" 1974
Z: 2022 John Chambers <jc:trillian.mit.edu>
M: 2/4
L: 1/16
K: D
%%slurgraces 1
%%graceslurs 1
% - - - - - - - - - -
"^A"|:\
{AB}A3F D2(DF) | {G}G6 (GB) | (AB)AF A2c2 | e6 (ef |\
e2)((3cdc A2){A}d2 | [f6A6] ((3(fgf) | e2)d2 c2(3(efe) | d2(fe d4) :|
"^B"|:\
[dD]efg a2b2 | a2(3(fgf) d2A2 | defg a2d'2 | c'2b2 a2f2 |\
defg a2b2 | {ab}a2f2 [f4d4] | (cdef) (3(gag)(ec) | {c}d4-[d4D4] :|
% - - - - - - - - - -
